X:19
T: Es wollt sich ein Herr ausreiten (Band 1), S. 59
N: P0793
O: Lothringen
S: PINCK, Louis: Verklingende Weisen, Bd 1, Metz 1928]
R: geistliche, religise Lieder]
M: 4/4
L: 1/8
K: G
D2 | G2GGG2AA | F2EFG2z
D | G2G2GBAG | F2EFG2
D2 | E2G2G2GG | F2ABA2
B2 | G2B2BAcA | G2F2G2

@@@ Tune index: 7569
